svgs/regular/thumbtack.svg

<svg xmlns="http://www.w3.org/2000/svg" viewBox="0 0 384 512"><!--! Font Awesome Pro 6.2.0 by @fontawesome - https://fontawesome.com License - https://fontawesome.com/license (Commercial License) Copyright 2022 Fonticons, Inc. --><path d="M168 352H32C22.15 352 12.84 347.5 6.778 339.7C.7133 331.9-1.434 321.8 .9555 312.2L7.202 287.3C17.51 246 42.58 211.5 75.93 188.9L86.77 48H56C51.56 48 47.41 46.8 43.84 44.7C36.76 40.53 32 32.82 32 24C32 10.75 42.75 0 56 0H328C341.3 0 352 10.75 352 24C352 32.82 347.2 40.53 340.2 44.7C336.6 46.8 332.4 48 328 48H297.2L308.1 188.9C341.4 211.5 366.5 246 376.8 287.3L383 312.2C385.4 321.8 383.3 331.9 377.2 339.7C371.2 347.5 361.9 352 352 352H216V488C216 501.3 205.3 512 191.1 512C178.7 512 167.1 501.3 167.1 488L168 352zM122 215.7L102.9 228.7C79.01 244.8 61.13 269.4 53.77 298.9L52.49 304H168V216C168 202.7 178.7 192 192 192C205.3 192 216 202.7 216 216V304H331.5L330.2 298.9C322.9 269.4 304.1 244.8 281.1 228.7L261.1 215.7L249.1 48H134.9L122 215.7z"/></svg>

<svg xmlns="http://www.w3.org/2000/svg" viewBox="0 0 384 512"><!--! Font Awesome Pro 6.3.0 by @fontawesome - https://fontawesome.com License - https://fontawesome.com/license (Commercial License) Copyright 2023 Fonticons, Inc. --><path d="M134.6 51.7L123.8 192.6c-1.1 14.6-8.8 27.8-20.9 36C79 244.8 61.1 269.4 53.8 298.9L52.5 304H168V216c0-13.3 10.7-24 24-24s24 10.7 24 24v88H331.5l-1.3-5.1c-7.4-29.5-25.2-54.1-49.1-70.2c-12.1-8.2-19.8-21.5-20.9-36L249.4 51.7c-.1-1.2-.1-2.5-.1-3.7H134.8c0 1.2 0 2.5-.1 3.7zM168 352H32c-9.9 0-19.2-4.5-25.2-12.3S-1.4 321.8 1 312.2l6.2-25c10.3-41.3 35.4-75.7 68.7-98.3L83.1 96l3.7-48H56c-4.4 0-8.6-1.2-12.2-3.3C36.8 40.5 32 32.8 32 24C32 10.7 42.7 0 56 0H86.8 297.2 328c13.3 0 24 10.7 24 24c0 8.8-4.8 16.5-11.8 20.7c-3.6 2.1-7.7 3.3-12.2 3.3H297.2l3.7 48 7.1 92.9c33.3 22.6 58.4 57.1 68.7 98.3l6.2 25c2.4 9.6 .2 19.7-5.8 27.5s-15.4 12.3-25.2 12.3H216V488c0 13.3-10.7 24-24 24s-24-10.7-24-24V352z"/></svg>
